dist/img/svg/calendar.svg

<svg width="14" height="16" viewBox="0 0 14 16" fill="none" xmlns="http://www.w3.org/2000/svg">
<path d="M5.26562 2.5H9.20312V1.40625C9.20312 1.05078 9.47656 0.75 9.85938 0.75C10.2148 0.75 10.5156 1.05078 10.5156 1.40625V2.5H11.6094C12.5664 2.5 13.3594 3.29297 13.3594 4.25V13C13.3594 13.9844 12.5664 14.75 11.6094 14.75H2.85938C1.875 14.75 1.10938 13.9844 1.10938 13V4.25C1.10938 3.29297 1.875 2.5 2.85938 2.5H3.95312V1.40625C3.95312 1.05078 4.22656 0.75 4.60938 0.75C4.96484 0.75 5.26562 1.05078 5.26562 1.40625V2.5ZM2.42188 13C2.42188 13.2461 2.61328 13.4375 2.85938 13.4375H11.6094C11.8281 13.4375 12.0469 13.2461 12.0469 13V6H2.42188V13Z" fill="currentColor"/>
</svg>

<svg width="14" height="16" viewBox="0 0 14 16" fill="none" xmlns="http://www.w3.org/2000/svg"><path d="M5.266 2.5h3.937V1.406c0-.355.274-.656.656-.656.356 0 .657.3.657.656V2.5h1.093c.957 0 1.75.793 1.75 1.75V13c0 .984-.793 1.75-1.75 1.75H2.86c-.984 0-1.75-.766-1.75-1.75V4.25c0-.957.766-1.75 1.75-1.75h1.094V1.406c0-.355.274-.656.656-.656.356 0 .657.3.657.656V2.5zM2.422 13c0 .246.191.438.437.438h8.75a.45.45 0 00.438-.438V6H2.422v7z" fill="currentColor"/></svg>
